Hatter-kde/actions/22/kdenlive-add-clip.svg

<?xml version="1.0" encoding="UTF-8"?>
<svg viewBox="0 0 22 22" xmlns="http://www.w3.org/2000/svg">
 <defs id="defs3051">
  <style id="current-color-scheme" type="text/css">.ColorScheme-Text {
        color:#363636;
      }</style>
 </defs>
 <path class="ColorScheme-Text" d="m3 3v1 1 13 1h15 1v-14-1-1h-16zm3 2h10v12h-10v-12zm-2 1h1v1h-1v-1zm13 0h1v1h-1v-1zm-13 2h1v1h-1v-1zm5 0v6l4-3-4-3zm8 0h1v1h-1v-1zm-13 2h1v1h-1v-1zm13 0h1v1h-1v-1zm-13 2h1v1h-1v-1zm13 0h1v1h-1v-1zm-13 2h1v1h-1v-1zm13 0h1v1h-1v-1zm-13 2h1v1h-1v-1zm13 0h1v1h-1v-1z" fill="currentColor"/>
</svg>

<svg xmlns="http://www.w3.org/2000/svg" viewBox="0 0 22 22">
  <defs id="defs3051">
    <style type="text/css" id="current-color-scheme">
      .ColorScheme-Text {
        color:#363636;
      }
      </style>
  </defs>
 <path 
     style="fill:currentColor;fill-opacity:1;stroke:none" 
     d="M 3 3 L 3 4 L 3 5 L 3 18 L 3 19 L 18 19 L 19 19 L 19 5 L 19 4 L 19 3 L 3 3 z M 6 5 L 16 5 L 16 17 L 6 17 L 6 5 z M 4 6 L 5 6 L 5 7 L 4 7 L 4 6 z M 17 6 L 18 6 L 18 7 L 17 7 L 17 6 z M 4 8 L 5 8 L 5 9 L 4 9 L 4 8 z M 9 8 L 9 14 L 13 11 L 9 8 z M 17 8 L 18 8 L 18 9 L 17 9 L 17 8 z M 4 10 L 5 10 L 5 11 L 4 11 L 4 10 z M 17 10 L 18 10 L 18 11 L 17 11 L 17 10 z M 4 12 L 5 12 L 5 13 L 4 13 L 4 12 z M 17 12 L 18 12 L 18 13 L 17 13 L 17 12 z M 4 14 L 5 14 L 5 15 L 4 15 L 4 14 z M 17 14 L 18 14 L 18 15 L 17 15 L 17 14 z M 4 16 L 5 16 L 5 17 L 4 17 L 4 16 z M 17 16 L 18 16 L 18 17 L 17 17 L 17 16 z "
     class="ColorScheme-Text"
     />
</svg>
